X: 36698
T: She's In The Attic
R: reel
M: 4/4
K: Gminor
gGBA cBAG|FCDF CDFG|gGBA cBAG|FGAB AG G2|
gGBA cBAG|FCDF CDFG|gGBA cBAG|FGAB AG G2:|
BGEG EGDG|CGDG EG^FG|BGEG EGDG|^FGAB AG G2|
BGEG EGDG|CGDG EG^FG|BGEB GEBG|^FGAF G4:|

